src/assets/images/logo-kulturverein-muri-gümligen.svg

<svg viewBox="0 0 1540 236"
    xmlns="http://www.w3.org/2000/svg">
    <style>
        path {
        fill: #333;
        }

        @media (prefers-color-scheme: dark) {
        path {
        fill: #FFF;
        }
        }
    </style>
    <g>
        <path d="M1473,174l17,0l20,30l0,-30l18,0l0,56l-16,0l-22,-30l0,30l-17,0l0,-56Z" fill="none"
        />
        <path d="M1388,174l46,0l0,11l-30,0l0,11l28,0l0,10l-28,0l0,12l30,0l0,12l-46,0l0,-56Z"
        />
        <path
            d="M1332,191l14,-4c-2.762,-8.184 -12.117,-14.982 -26,-15c-15.93,-0.02 -28.723,10.339 -29,30c-0.262,18.607 9.913,29.504 30,29.046c12.425,-0.098 20.93,-3.211 27,-11.046l0,-21l-26,0l0,10l12,0c-0.251,6.434 -5.462,10.128 -13,10c-7.152,-0.121 -12.764,-5.935 -13,-17c-0.222,-10.379 5.364,-17.032 12,-17c6.604,0.031 10.163,2.585 12,6Z"
        />
        <rect x="1232" y="174" width="19" height="56" />
        <path d="M1152,174l18,0l0,43l27,0l0,13l-45,0l0,-56Z" />
        <path
            d="M1049,174l23,0l9,34l10,-34l21,0l0,56l-14,0.046l0,-42.046l-11,42l-12,0l-13,-42l0,42l-13,0l0,-56Z"
        />
        <g>
            <path
                d="M954,174l17,0l0,37c0.342,6.08 2.524,8.062 9,8c6.386,-0.061 9.714,-2.397 10,-8l0,-37l17,0l0,37c-1.544,13.543 -10.713,20.691 -27,20c-13.726,0.462 -23.46,-4.701 -26,-20l0,-37Z"
            />
            <g>
                <rect x="985" y="160" width="10" height="10" />

                <rect x="966" y="160" width="10" height="10" />
            </g>
        </g>
        <path
            d="M899,191l14,-4c-2.762,-8.184 -12.117,-14.982 -26,-15c-15.93,-0.02 -28.723,10.339 -29,30c-0.262,18.607 9.913,29.504 30,29.046c12.425,-0.098 20.93,-3.211 27,-11.046l0,-21l-26,0l0,10l12,0c-0.251,6.434 -5.462,10.128 -13,10c-7.152,-0.121 -12.764,-5.935 -13,-17c-0.222,-10.379 5.364,-17.032 12,-17c6.604,0.031 10.163,2.585 12,6Z"
        />
    </g>
    <g>
        <rect x="716" y="174" width="19" height="56" />
        <g>
            <path
                d="M626,174l40,0c6.881,2.536 10.382,10.077 10,16c-0.347,7.421 -4.111,12.579 -12,15c8.613,7.592 13.996,15.929 16,25.046l-18,-0c-2.511,-8.76 -7.422,-16.32 -14,-23.046l-6,0l0,23.046l-16,-0l0,-56.046Zm16,10l0,13l14,0c3.144,-1.298 4.414,-3.668 4,-7c-0.112,-2.407 -1.564,-4.368 -4,-6l-14,0Z"
            />
        </g>
        <path
            d="M532,174l16,0l0,36c0.532,6.488 5.881,9 10,9c4.119,0 9.545,-2.242 10,-9l0,-36l16,0l0,36c-0.544,13.543 -10.713,20.691 -26,21c-14.195,-0.194 -25.277,-7.101 -26,-21l0,-36Z"
        />
        <path
            d="M427,174l23,0l8,32l10,-32l24,0l0,56l-15,0.046l0,-40.046l-13,40l-12,0l-11,-40l0,40l-14,0l0,-56Z"
        />
    </g>
    <path
        d="M147,1.004l70,0.325l0,154.671c0.42,16.327 17.065,27.707 39,27.774c20.499,0.063 39.955,-14.347 40,-28.119l0,-154.651l72,0l0,154.651c0.03,47.978 -48.729,80.74 -112,80.342c-60.957,0.251 -109.591,-32.421 -109,-80.342l0,-154.651Z"
        style="fill:rgb(228,51,18);stroke:rgb(228,41,39);stroke-width:1px;" />
    <g>
        <path
            d="M1453.05,2.329l22.949,0l28,41.671l0,-41.671l24,0l-0.341,76.026l-23.659,0l-28,-39.877l0,39.877l-23.322,0l0.373,-76.026Z"
        />
        <path d="M1375,2.329l22.454,0l-0.373,76.026l-22.713,0l0.632,-76.026Z"
        />
        <path
            d="M1257,2.329l63.529,0l0.128,13.671l-42.033,0l0.238,14.403l38.138,-0.372l0,15.458l-38.138,0l-0.068,15.734l42.206,0.067l0,17.065l-64,0l0,-76.026Z"
        />
        <g>
            <path
                d="M1136,2.329l52,0c9.572,3.191 15.376,9.671 16,20.59c-0.827,10.387 -6.125,17.608 -16.713,21.081c11.324,8.823 18.859,21.464 22.267,34.355l-24.86,0c-2.97,-10.926 -8.723,-21.869 -18.607,-30.355l-7.168,0l-0.305,30.355l-22.614,0l-0,-76.026Zm23,31.106c-0,-0 16.767,0.174 17,0.153c5.362,-0.487 6.334,-6.245 6.334,-9.588c0,-3.343 -2.175,-7.701 -6.334,-8l-17.153,-0l0.153,17.435Z"
            />
        </g>
        <path
            d="M1019,2.329l64.529,0l0.128,14.671l-42.033,0l0.238,13.403l38.138,-0.372l0,15.458l-38.138,0l-0.068,15.734l42.206,0.067l0,17.065l-65,0l0,-76.026Z"
        />
        <path
            d="M913.409,2.329l17.501,53.671l17.09,-53.671l22.379,0l-26.379,76.026l-24,0l-30.421,-76.026l23.83,0Z"
        />
        <g>
            <path
                d="M775.223,2.329l52,0c9.572,1.191 16.153,9.671 16.777,20.59c-0.827,10.387 -5.902,18.608 -17.49,21.081c11.324,8.823 17.859,21.464 22.267,34.355l-24.777,0c-2.97,-10.926 -8.806,-21.869 -18.69,-30.355l-7.168,0l-0.305,30.355l-22.614,0l0,-76.026Zm23,31.106c-0,-0 16.769,0.186 17,0.153c3.362,-0.487 6.62,-4.645 6.334,-8.978c0.315,-4.146 -2.175,-8.311 -6.334,-8.61l-17.153,-0l0.153,17.435Z"
            />
        </g>
        <path
            d="M648,2.329l24,0l0,49.671c-0.05,5.854 8.617,9.308 13.654,9.308c5.037,0 12.904,-3.794 13.032,-9.308l0.373,-49.671l23.341,0l0.372,49.671c0.151,16.263 -15.41,28.241 -37.118,28c-20.728,-0.23 -36.991,-14.251 -37.654,-28l0,-49.671Z"
        />
        <path
            d="M527.25,2.329l72.119,0l-0.373,17.671l-24.458,0l-0.372,58.355l-22.341,0l0.175,-58.122c-10.784,-0.623 -16.731,-0.279 -24.867,-0.373l0.117,-17.531Z"
        />
        <path
            d="M427.344,2.329l23.53,0l0.045,56.373l36.862,-0l0.219,19.653l-60.912,0l0.256,-76.026Z"
        />
        <path
            d="M11.004,2.329l21.979,0l-0.234,28.263l26.421,-28.263l30.397,0l-26.655,28.964l29.088,47.062l-27.218,0l-17.069,-33.033l-14.496,13.094l0.233,19.939l-21.978,0l-0.468,-76.026Z"
        />
    </g>
    <rect
        x="-4" y="119.864" width="1544" height="4.136" />
</svg>

<svg width="100%" height="100%" viewBox="0 0 1540 236" version="1.1"
    xmlns="http://www.w3.org/2000/svg" xmlns:xlink="http://www.w3.org/1999/xlink"
    xml:space="preserve" xmlns:serif="http://www.serif.com/"
    style="fill-rule:evenodd;clip-rule:evenodd;stroke-linecap:round;stroke-miterlimit:1.5;">
    <g>
        <path d="M1473,174L1490,174L1510,204L1510,174L1528,174L1528,230L1512,230L1490,200L1490,230L1473,230L1473,174Z" style="stroke:black;stroke-width:1px;"/>
        <path d="M1388,174L1434,174L1434,185L1404,185L1404,196L1432,196L1432,206L1404,206L1404,218L1434,218L1434,230L1388,230L1388,174Z" style="stroke:black;stroke-width:1px;"/>
        <path d="M1332,191L1346,187C1343.24,178.816 1333.88,172.018 1320,172C1304.07,171.98 1291.28,182.339 1291,202C1290.74,220.607 1300.91,231.504 1321,231.046C1333.42,230.948 1341.93,227.835 1348,220L1348,199L1322,199L1322,209L1334,209C1333.75,215.434 1328.54,219.128 1321,219C1313.85,218.879 1308.24,213.065 1308,202C1307.78,191.621 1313.36,184.968 1320,185C1326.6,185.031 1330.16,187.585 1332,191Z" style="stroke:black;stroke-width:1px;"/>
        <rect x="1232" y="174" width="19" height="56" style="stroke:black;stroke-width:1px;"/>
        <path d="M1152,174L1170,174L1170,217L1197,217L1197,230L1152,230L1152,174Z"/>
        <path d="M1049,174L1072,174L1081,208L1091,174L1112,174L1112,230L1098,230.046L1098,188L1087,230L1075,230L1062,188L1062,230L1049,230L1049,174Z" style="stroke:black;stroke-width:1px;"/>
        <g>
            <g>
                <rect x="968" y="160" width="10" height="10"/>
                <rect x="985" y="160" width="10" height="10"/>
            </g>
            <path d="M954,174L971,174L971,211C971.342,217.08 973.524,219.062 980,219C986.386,218.939 989.714,216.603 990,211L990,174L1007,174L1007,211C1005.46,224.543 996.287,231.691 980,231C966.274,231.462 956.54,226.299 954,211L954,174Z" style="stroke:black;stroke-width:1px;"/>
        </g>
        <path d="M899,191L913,187C910.238,178.816 900.883,172.018 887,172C871.07,171.98 858.277,182.339 858,202C857.738,220.607 867.913,231.504 888,231.046C900.425,230.948 908.93,227.835 915,220L915,199L889,199L889,209L901,209C900.749,215.434 895.538,219.128 888,219C880.848,218.879 875.236,213.065 875,202C874.778,191.621 880.364,184.968 887,185C893.604,185.031 897.163,187.585 899,191Z" style="stroke:black;stroke-width:1px;"/>
    </g>
    <g>
        <rect x="716" y="174" width="16" height="56" style="stroke:black;stroke-width:1px;"/>
        <g>
            <path d="M626,174L666,174C672.881,176.536 676.382,184.077 676,190C675.653,197.421 671.889,202.579 664,205C672.613,212.592 677.996,220.929 680,230.046L662,230.046C659.489,221.286 654.578,213.726 648,207L642,207L642,230.046L626,230.046L626,174ZM642,184L642,197L656,197C659.144,195.702 660.414,193.332 660,190C659.888,187.593 658.436,185.632 656,184L642,184Z" style="stroke:black;stroke-width:1px;"/>
        </g>
        <path d="M532,174L548,174L548,210C548.532,216.488 553.881,219 558,219C562.119,219 567.545,216.758 568,210L568,174L584,174L584,210C583.456,223.543 573.287,230.691 558,231C543.805,230.806 532.723,223.899 532,210L532,174Z" style="stroke:black;stroke-width:1px;"/>
        <path d="M427,174L450,174L458,206L468,174L492,174L492,230L477,230.046L477,190L464,230L452,230L441,190L441,230L427,230L427,174Z" style="stroke:black;stroke-width:1px;"/>
    </g>
    <path
        d="M147,1.004L217,1.329L217,156C217.42,172.327 234.065,183.707 256,183.774C276.499,183.837 295.955,169.427 296,155.655L296,1.004L368,1.004L368,155.655C368.03,203.633 319.271,236.395 256,235.997C195.043,236.248 146.409,203.576 147,155.655L147,1.004Z"
        style="fill:#e43312;stroke:#e43312;stroke-width:1px;" />
    <g>
        <path d="M1453.05,2.329L1476,2.329L1504,44L1504,2.329L1528,2.329L1527.66,78.355L1504,78.355L1476,38.478L1476,78.355L1452.68,78.355L1453.05,2.329Z" style="stroke:black;stroke-width:1px;"/>
        <path d="M1375,2.329L1397.45,2.329L1397.08,78.355L1374.37,78.355L1375,2.329Z" style="stroke:black;stroke-width:1px;"/>
        <path d="M1257,2.329L1320.53,2.329L1320.66,16L1278.62,16L1278.86,30.403L1317,30.031L1317,45.489L1278.86,45.489L1278.79,61.223L1321,61.29L1321,78.355L1257,78.355L1257,2.329Z" style="stroke:black;stroke-width:1px;"/>
        <g>
            <path d="M1136,2.329L1188,2.329C1197.57,5.52 1203.38,12 1204,22.919C1203.17,33.306 1197.88,40.527 1187.29,44C1198.61,52.823 1206.15,65.464 1209.55,78.355L1184.69,78.355C1181.72,67.429 1175.97,56.486 1166.09,48L1158.92,48L1158.61,78.355L1136,78.355L1136,2.329ZM1159,33.435C1159,33.435 1175.77,33.609 1176,33.588C1181.36,33.101 1182.33,27.343 1182.33,24C1182.33,20.657 1180.16,16.299 1176,16L1158.85,16L1159,33.435Z" style="stroke:black;stroke-width:1px;"/>
        </g>
        <path d="M1019,2.329L1083.53,2.329L1083.66,17L1041.62,17L1041.86,30.403L1080,30.031L1080,45.489L1041.86,45.489L1041.79,61.223L1084,61.29L1084,78.355L1019,78.355L1019,2.329Z" style="stroke:black;stroke-width:1px;"/>
        <path d="M913.409,2.329L930.91,56L948,2.329L970.379,2.329L944,78.355L920,78.355L889.579,2.329L913.409,2.329Z" style="stroke:black;stroke-width:1px;"/>
        <g>
            <path d="M775.223,2.329L827.223,2.329C836.795,3.52 843.376,12 844,22.919C843.173,33.306 838.098,41.527 826.51,44C837.834,52.823 844.369,65.464 848.777,78.355L824,78.355C821.03,67.429 815.194,56.486 805.31,48L798.142,48L797.837,78.355L775.223,78.355L775.223,2.329ZM798.223,33.435C798.223,33.435 814.992,33.621 815.223,33.588C818.585,33.101 821.843,28.943 821.557,24.61C821.872,20.464 819.382,16.299 815.223,16L798.07,16L798.223,33.435Z" style="stroke:black;stroke-width:1px;"/>
        </g>
        <path d="M648,2.329L672,2.329L672,52C671.95,57.854 680.617,61.308 685.654,61.308C690.691,61.308 698.558,57.514 698.686,52L699.059,2.329L722.4,2.329L722.772,52C722.923,68.263 707.362,80.241 685.654,80C664.926,79.77 648.663,65.749 648,52L648,2.329Z" style="stroke:black;stroke-width:1px;"/>
        <path d="M527.25,2.329L599.369,2.329L598.996,20L574.538,20L574.166,78.355L551.825,78.355L552,20.233C541.216,19.61 535.269,19.954 527.133,19.86L527.25,2.329Z" style="stroke:black;stroke-width:1px;"/>
        <path d="M427.344,2.329L450.874,2.329L450.919,58.702L487.781,58.702L488,78.355L427.088,78.355L427.344,2.329Z" style="stroke:black;stroke-width:1px;"/>
        <path d="M11.004,2.329L32.983,2.329L32.749,30.592L59.17,2.329L89.567,2.329L62.912,31.293L92,78.355L64.782,78.355L47.713,45.322L33.217,58.416L33.45,78.355L11.472,78.355L11.004,2.329Z" style="stroke:black;stroke-width:1px;"/>
    </g>
    <rect x="-4" y="119.864" width="1544" height="4.136" style="stroke:black;stroke-width:1px;stroke-linejoin:round;"/>
</svg>
